X:387
T: HOERT IHR CHRISTEN MIT VERLANGEN
N: E0220
O: Europa, Mitteleuropa, Deutschland, Unter - Franken
R: erzaehlendes Volks - Lied, Mahn -, Moral - Lied, Strafe, Faust - Sage
M: 3/4
L: 1/8
K: G
DD | G2G2(3BAG | FGA2
FG | A2A2B^c | d4
DD | G2G2(3BAG | FGA2
GB | d2B2(3dcA | G4

@@@ Tune index: 4037
